X:1
T:[ID 2-10]
T:[ID 2-10]
T:Bezeichnung standardisiert: Menuett Menuet Secondo 1.
T:Urheber unbekannt Erstbeleg: 1767 (Datum in der schriftlichen Quelle) Datum in der hier transkribierten schriftlichen Quelle: 1775
C:Urheber unbekannt
C:Erstbeleg: 1767 (Datum in der schriftlichen Quelle)
C:Datum in der hier transkribierten schriftlichen Quelle: 1775
L:1/8
M:3/4
K:D
V:1 treble 
V:1
 f2 f2 f2 | F2 F2 F2 | c4 e/d/c | d2 F4 | d2 (3fed (3edc | de (3fed (3edc | defged |{d} c6 :: %8
 d2 (3fed ef | g2 e4 | c2 (3edc de | f2 d4 | FDFDEF | G2 E4 | C2 (3EDC DE | F2 D4 | f2 f2 f2 | %17
 g4 a2 | (3bag feAG | F6 :| %20

